images/circles.svg

<svg width="37" height="37" viewBox="0 0 37 37" fill="none" xmlns="http://www.w3.org/2000/svg">
<path d="M18.2526 22.9277C17.3466 22.9277 16.461 22.6606 15.7077 22.1601C14.9544 21.6595 14.3672 20.9481 14.0205 20.1158C13.6738 19.2834 13.5831 18.3675 13.7599 17.4839C13.9366 16.6003 14.3729 15.7887 15.0135 15.1516C15.6542 14.5146 16.4704 14.0807 17.3589 13.905C18.2475 13.7292 19.1686 13.8194 20.0056 14.1642C20.8426 14.509 21.558 15.0928 22.0614 15.8419C22.5647 16.591 22.8334 17.4717 22.8334 18.3726C22.8294 19.5795 22.3456 20.7358 21.4874 21.5892C20.6291 22.4427 19.4663 22.9238 18.2526 22.9277ZM18.2526 15.3012C17.6417 15.3012 17.0446 15.4813 16.5366 15.8188C16.0287 16.1563 15.6328 16.636 15.3991 17.1972C15.1653 17.7584 15.1041 18.376 15.2233 18.9718C15.3425 19.5676 15.6366 20.1148 16.0686 20.5444C16.5006 20.9739 17.0509 21.2664 17.65 21.385C18.2492 21.5035 18.8702 21.4426 19.4346 21.2102C19.999 20.9777 20.4814 20.584 20.8207 20.079C21.1601 19.5739 21.3413 18.9801 21.3413 18.3726C21.3413 17.558 21.0159 16.7768 20.4366 16.2008C19.8574 15.6248 19.0718 15.3012 18.2526 15.3012Z" fill="#95E1D3"/>
<path d="M18.2526 28.017C16.3344 28.017 14.4593 27.4514 12.8643 26.3917C11.2694 25.3319 10.0263 23.8257 9.2922 22.0634C8.55813 20.3011 8.36606 18.3619 8.74029 16.4911C9.11451 14.6202 10.0382 12.9017 11.3946 11.5529C12.751 10.2041 14.4791 9.2856 16.3605 8.91347C18.2419 8.54134 20.1919 8.73233 21.9641 9.46229C23.7363 10.1923 25.2511 11.4284 26.3168 13.0144C27.3825 14.6005 27.9513 16.4651 27.9513 18.3726C27.9513 20.9305 26.9295 23.3836 25.1106 25.1922C23.2918 27.0009 20.8249 28.017 18.2526 28.017ZM18.2526 10.2119C16.6295 10.2119 15.0428 10.6905 13.6933 11.5872C12.3437 12.4839 11.2919 13.7585 10.6707 15.2496C10.0496 16.7408 9.88707 18.3817 10.2037 19.9647C10.5204 21.5477 11.302 23.0018 12.4497 24.1431C13.5974 25.2844 15.0597 26.0616 16.6516 26.3765C18.2435 26.6914 19.8936 26.5297 21.3931 25.9121C22.8927 25.2944 24.1744 24.2484 25.0761 22.9064C25.9779 21.5644 26.4592 19.9866 26.4592 18.3726C26.4552 16.2095 25.5894 14.136 24.0512 12.6065C22.513 11.0769 20.4279 10.2158 18.2526 10.2119Z" fill="#95E1D3"/>
<path d="M18.2526 33.1063C15.3222 33.1063 12.4575 32.2422 10.021 30.6233C7.58437 29.0043 5.68529 26.7032 4.56386 24.011C3.44242 21.3187 3.14901 18.3563 3.72071 15.4982C4.29241 12.6401 5.70356 10.0148 7.77569 7.95428C9.84783 5.89372 12.4879 4.49047 15.362 3.92197C18.2362 3.35346 21.2153 3.64524 23.9227 4.7604C26.6301 5.87556 28.9441 7.76402 30.5722 10.187C32.2002 12.6099 33.0692 15.4585 33.0692 18.3726C33.0653 22.279 31.503 26.0243 28.7252 28.7866C25.9474 31.5489 22.181 33.1024 18.2526 33.1063ZM18.2526 5.12262C15.6173 5.12262 13.0411 5.89972 10.8499 7.35565C8.65872 8.81157 6.95088 10.8809 5.94238 13.3021C4.93388 15.7232 4.67001 18.3873 5.18414 20.9575C5.69827 23.5278 6.96731 25.8887 8.83077 27.7418C10.6942 29.5948 13.0684 30.8567 15.6531 31.368C18.2378 31.8792 20.9169 31.6169 23.3517 30.614C25.7864 29.6111 27.8674 27.9129 29.3315 25.7339C30.7956 23.555 31.5771 20.9932 31.5771 18.3726C31.5771 16.6326 31.2325 14.9096 30.5628 13.3021C29.8932 11.6945 28.9118 10.2338 27.6745 9.00345C26.4372 7.77308 24.9683 6.79709 23.3517 6.13122C21.7351 5.46534 20.0024 5.12262 18.2526 5.12262Z" fill="#95E1D3"/>
</svg>

<svg width="37" height="37" fill="none" xmlns="http://www.w3.org/2000/svg"><path d="M18.253 22.928a4.6 4.6 0 0 1-2.545-.768 4.562 4.562 0 0 1-1.688-2.044 4.531 4.531 0 0 1 .994-4.964 4.604 4.604 0 0 1 4.992-.987 4.576 4.576 0 0 1 2.055 1.677c.504.749.772 1.63.772 2.53a4.557 4.557 0 0 1-1.346 3.217 4.609 4.609 0 0 1-3.234 1.339Zm0-7.627c-.611 0-1.208.18-1.716.518a3.075 3.075 0 0 0-1.138 1.378 3.055 3.055 0 0 0 .67 3.347 3.095 3.095 0 0 0 3.366.666 3.085 3.085 0 0 0 1.386-1.131 3.06 3.06 0 0 0-.384-3.878 3.097 3.097 0 0 0-2.184-.9Z" fill="#95E1D3"/><path d="M18.253 28.017a9.738 9.738 0 0 1-5.389-1.625 9.657 9.657 0 0 1-3.572-4.329 9.594 9.594 0 0 1-.552-5.572 9.628 9.628 0 0 1 2.655-4.938 9.716 9.716 0 0 1 4.965-2.64 9.75 9.75 0 0 1 5.604.55 9.688 9.688 0 0 1 4.353 3.551 9.606 9.606 0 0 1-1.206 12.178 9.726 9.726 0 0 1-6.858 2.825Zm0-17.805a8.24 8.24 0 0 0-4.56 1.375 8.171 8.171 0 0 0-3.022 3.663 8.12 8.12 0 0 0-.467 4.715 8.147 8.147 0 0 0 2.246 4.178 8.221 8.221 0 0 0 4.202 2.233 8.25 8.25 0 0 0 4.741-.464 8.197 8.197 0 0 0 3.683-3.006 8.128 8.128 0 0 0 1.383-4.533 8.152 8.152 0 0 0-2.408-5.767 8.245 8.245 0 0 0-5.798-2.394Z" fill="#95E1D3"/><path d="M18.253 33.106c-2.93 0-5.796-.864-8.232-2.483a14.752 14.752 0 0 1-5.457-6.612 14.657 14.657 0 0 1-.843-8.513 14.708 14.708 0 0 1 4.055-7.544 14.843 14.843 0 0 1 7.586-4.032 14.894 14.894 0 0 1 8.56.838 14.799 14.799 0 0 1 6.65 5.427 14.675 14.675 0 0 1 2.497 8.186 14.707 14.707 0 0 1-4.344 10.414 14.874 14.874 0 0 1-10.472 4.32Zm0-27.983c-2.636 0-5.212.777-7.403 2.233a13.266 13.266 0 0 0-4.908 5.946 13.18 13.18 0 0 0-.758 7.655 13.228 13.228 0 0 0 3.647 6.785 13.348 13.348 0 0 0 6.822 3.626c2.585.511 5.264.249 7.699-.754a13.309 13.309 0 0 0 5.98-4.88 13.197 13.197 0 0 0 1.23-12.432 13.244 13.244 0 0 0-2.888-4.299 13.33 13.33 0 0 0-4.322-2.872 13.39 13.39 0 0 0-5.1-1.008Z" fill="#95E1D3"/></svg>
